Origami/64x64/apps/devdocs.svg

<svg width="64" height="64" version="1.1" viewBox="0 0 16.93 16.93" xmlns="http://www.w3.org/2000/svg">
 <g transform="translate(0,-280.06665)">
  <path d="m1.8520832 281.38957c-0.4397375 0-0.79375 0.35402-0.79375 0.79374v13.22918c0 0.43974 0.3540125 0.79374 0.79375 0.79374h8.7312498l5.291667-5.29166v-8.73126c0-0.43972-0.354013-0.79374-0.79375-0.79374z" style="opacity:.2"/>
  <path d="m2.1166666 281.125s-1.0583334 0-1.0583334 1.05832v12.7c0 1.05834 1.0583334 1.05834 1.0583334 1.05834h8.4666664l5.291667-5.29166v-8.46668c0-1.05832-1.058334-1.05832-1.058334-1.05832z" style="fill:#ffa234"/>
  <path d="m15.875 290.65h-4.497917c-0.438377 0-0.79375 0.35536-0.79375 0.79374v4.49792z" style="fill:#ffcd82"/>
  <path transform="matrix(.26458333 0 0 .26458333 0 280.06665)" d="m43 40c-1.656858 0-3 1.343131-3 3v1c0-1.656869 1.343142-3 3-3h16l1-1h-17z" style="fill:#ffffff;opacity:.2"/>
  <path d="m5.8208332 283.77082a2.6458332 2.6458332 0 0 0 -2.4236256 1.5875h2.423625v2.11668h-2.421556a2.6458332 2.6458332 0 0 0 2.4215566 1.5875 2.6458332 2.6458332 0 0 0 2.4215566 -1.5875h4.9867762v-2.11668h-4.9847072a2.6458332 2.6458332 0 0 0 -2.4236256 -1.5875z" style="fill:#4b4b4b"/>
  <path transform="matrix(.26458333 0 0 .26458333 0 280.06665)" d="m8 4s-4 5.03e-5 -4 4v1c0-3.9999497 4-4 4-4h48s4 5.03e-5 4 4v-1c0-3.9999497-4-4-4-4h-48z" style="fill:#ffffff;opacity:.2"/>
 </g>
</svg>

<svg xmlns="http://www.w3.org/2000/svg" width="64" height="64" version="1.1" viewBox="0 0 16.93 16.93">
 <g transform="translate(0,-280.06665)">
  <path style="opacity:0.2" d="m 1.8520832,281.38957 c -0.4397375,0 -0.79375,0.35402 -0.79375,0.79374 v 13.22918 c 0,0.43974 0.3540125,0.79374 0.79375,0.79374 H 10.583333 L 15.875,290.91457 v -8.73126 c 0,-0.43972 -0.354013,-0.79374 -0.79375,-0.79374 z"/>
  <path style="fill:#ffa234" d="m 2.1166666,281.125 c 0,0 -1.0583334,0 -1.0583334,1.05832 v 12.7 c 0,1.05834 1.0583334,1.05834 1.0583334,1.05834 H 10.583333 L 15.875,290.65 v -8.46668 c 0,-1.05832 -1.058334,-1.05832 -1.058334,-1.05832 z"/>
  <path style="fill:#ffcd82" d="m 15.875,290.65 h -4.497917 c -0.438377,0 -0.79375,0.35536 -0.79375,0.79374 v 4.49792 z"/>
  <path style="opacity:0.2;fill:#ffffff" d="M 43 40 C 41.343142 40 40 41.343131 40 43 L 40 44 C 40 42.343131 41.343142 41 43 41 L 59 41 L 60 40 L 43 40 z" transform="matrix(0.26458333,0,0,0.26458333,0,280.06665)"/>
  <path style="fill:#4b4b4b" d="m 5.8208332,283.77082 a 2.6458332,2.6458332 0 0 0 -2.4236256,1.5875 h 0.195336 2.228289 V 287.475 H 3.5935814 3.3992766 a 2.6458332,2.6458332 0 0 0 2.4215566,1.5875 2.6458332,2.6458332 0 0 0 2.4215566,-1.5875 h 4.9867762 v -2.11668 H 8.2444588 a 2.6458332,2.6458332 0 0 0 -2.4236256,-1.5875 z"/>
  <path style="opacity:0.2;fill:#ffffff" d="M 8 4 C 8 4 4 4.0000503 4 8 L 4 9 C 4 5.0000503 8 5 8 5 L 56 5 C 56 5 60 5.0000503 60 9 L 60 8 C 60 4.0000503 56 4 56 4 L 8 4 z" transform="matrix(0.26458333,0,0,0.26458333,0,280.06665)"/>
 </g>
</svg>
